src/topics/icons/deploy.svg

<svg height="152" preserveAspectRatio="xMidYMid" viewBox="0 0 512 152" width="512" xmlns="http://www.w3.org/2000/svg"><path d="m10.5813333 44.1567885c7.0523871-8.0286738 16.0279857-12.0420932 26.9249606-12.0420932 10.3225807 0 18.723785 4.0721434 25.2036129 12.214595v-42.49416485h27.0112115v117.50491755h-27.0112115v-9.893161c-6.9386093 7.971785-15.3398136 11.985204-25.2036129 12.042093-10.8969749 0-19.8707383-3.971212-26.9249606-11.913634-7.05422219-7.940588-10.5813333-18.9091331-10.5813333-32.9019647 0-13.6478279 3.52711111-24.4860788 10.5813333-32.5165878zm433.1464947-11.7264516 19.441319 53.9361721 19.182566-53.9361721h28.730724l-38.451383 97.2047601c-3.154581 8.314953-7.670825 14.064401-13.548731 17.246509-5.877907 3.182107-13.346868 4.888774-22.408717 5.118165-4.701592 0-8.573706-.458782-11.612674-1.376344l3.870279-24.172273c1.892015 1.031341 4.129033 1.576373 6.709219 1.635097 6.36605 0 10.23633-1.576373 11.612674-4.730954l1.978265-4.644702-8.959082-22.7500502c.102767-.9267383.155985-1.8608172.155985-2.8022366 0-7.6341218-3.378466-14.5488745-8.740702-18.9953835l-16.435384-41.7325878zm-319.284301 32.9460072h35.010523c-.458781-3.4977491-2.093878-6.5807599-4.903455-9.2471971-2.809577-2.6664373-7.054222-4.0005735-12.7321-4.0005735-5.391599 0-9.491269 1.3047742-12.300846 3.9143226-2.807742 2.6095483-4.499728 5.720086-5.074122 9.333448zm163.384889-65.3763441h27.097462v73.230681c-4.907125 5.6264946-8.459928 13.135828-8.459928 20.9002437 0 7.7534053 2.930695 14.7947813 8.458093 19.5734483v3.80238h-27.097462v-117.506753zm-260.1290325 74.8822939c0 6.2229104 1.7635556 11.2401434 5.2906667 15.0535341 3.5271111 3.8133906 7.9864659 5.720086 13.3762294 5.720086 2.9251899 0 5.9494767-.7303799 9.0746953-2.1929749s5.5475842-3.3124015 7.2689319-5.5475843v-26.0661218c-1.7782365-2.2370179-4.2152831-4.0574624-7.3111398-5.4631685-3.0976917-1.4057061-6.1072975-2.106724-9.0324874-2.106724-5.5053764 0-9.9922581 1.8773333-13.4624803 5.6338351s-5.2044158 8.7462079-5.2044158 14.9691183zm190.8236845 13.0312258c1.662624 2.2370179 4.042781 4.0868244 7.140473 5.5475842 3.097692 1.462595 6.107298 2.192975 9.032488 2.192975 5.391598 0 9.863799-1.8773334 13.418437-5.6338352 3.556473-3.7565018 5.332875-8.8177778 5.332875-15.1819928 0-6.2504373-1.763556-11.2401434-5.290667-14.9672832-3.527111-3.7271397-8.013993-5.5916272-13.46248-5.5916272-2.92519 0-5.934796.7303799-9.032488 2.1929749s-5.476014 3.3124014-7.140473 5.5475842v25.8936201zm-121.7770895-13.0752688c0-12.5595986 4.2299645-23.1262509 12.6880575-31.6981219 8.458093-8.5737061 19.254136-12.8605591 32.386294-12.8605591 12.788989 0 23.240028 4.316215 31.354953 12.94681s12.172387 20.1148101 12.172387 34.4508101v6.1935484h-60.55914c1.031341 4.1290322 3.369291 7.4836415 7.01018 10.0638279s8.415885 3.8702796 14.323154 3.8702796c3.268358 0 6.95329-.6734911 11.05296-2.0223083 4.099671-1.346982 7.325821-3.0830107 9.676617-5.2044157l11.871426 17.8062221c-4.129032 3.613362-9.390337 6.393577-15.785749 8.344315-6.395412 1.950739-13.003699 2.92519-19.82853 2.92519-13.361549 0-24.42919-4.086824-33.20476-12.258638-8.7719-8.169978-13.1578495-19.0229099-13.1578495-32.5569601zm94.6796275 75.0970031v-117.5049171h27.097462v9.8931613c6.595441-7.9717849 14.996645-11.9852043 25.203613-12.0420932 11.067642 0 20.057921 3.9418495 26.967168 11.8273835 6.911083 7.8855341 10.364789 18.7953549 10.364789 32.7312975 0 14.1084445-3.470222 25.1045162-10.408832 32.99005-6.938609 7.885534-15.914207 11.827384-26.92496 11.827384-9.979412 0-18.380617-4.072144-25.203613-12.214595v42.494165h-27.095627z" fill="#030000"/><path d="m329.216 66.3195986 1.183656-.4367599.412903-1.2423799c5.527398-16.5950394 20.500187-27.9379498 37.531986-27.9379498 13.853362 0 26.47719 7.4928172 33.702079 19.5844587l.52301.8735198.94142.29362c6.334853 1.9801004 11.742968 6.4100932 15.143455 12.3430538l.563383.9836272 1.064373.2660932c9.594036 2.4076846 16.479427 11.4475126 16.479427 21.942595 0 12.7045733-10.502423 24.3833123-22.153635 24.3833123h-32.531268v-23.3501367h11.735627c2.233347 0 3.198623-1.6075699 2.158107-3.5895053 0 0-20.685534-31.0741793-24.355785-31.0741793s-24.355785 31.0741793-24.355785 31.0741793c-1.038681 1.9801003-.073405 3.5895053 2.158108 3.5895053h11.533763v23.3501367h-4.108846-5.217261l-22.66747.07524c-12.155871-2.633405-18.821046-12.288-18.821046-23.5464949 0-12.4384803 9.828932-24.1722725 19.079799-27.5819355z" fill="#9bc75d"/></svg>

<?xml version="1.0" encoding="UTF-8" standalone="no"?>
<svg width="512px" height="152px" viewBox="0 0 512 152" version="1.1" xmlns="http://www.w3.org/2000/svg" xmlns:xlink="http://www.w3.org/1999/xlink" preserveAspectRatio="xMidYMid">
    <defs>
        <path id="path-1" d="M329.216,66.3195986 L330.399656,65.8828387 L330.812559,64.6404588 C336.339957,48.0454194 351.312746,36.702509 368.344545,36.702509 C382.197907,36.702509 394.821735,44.1953262 402.046624,56.2869677 L402.569634,57.1604875 L403.511054,57.4541075 C409.845907,59.4342079 415.254022,63.8642007 418.654509,69.7971613 L419.217892,70.7807885 L420.282265,71.0468817 C429.876301,73.4545663 436.761692,82.4943943 436.761692,92.9894767 C436.761692,105.69405 426.259269,117.372789 414.608057,117.372789 L382.076789,117.372789 L382.076789,94.0226523 L393.812416,94.0226523 C396.045763,94.0226523 397.011039,92.4150824 395.970523,90.433147 C395.970523,90.433147 375.284989,59.3589677 371.614738,59.3589677 C367.944487,59.3589677 347.258953,90.433147 347.258953,90.433147 C346.220272,92.4132473 347.185548,94.0226523 349.417061,94.0226523 L360.950824,94.0226523 L360.950824,117.372789 L356.841978,117.372789 L351.624717,117.372789 L328.957247,117.448029 C316.801376,114.814624 310.136201,105.160029 310.136201,93.9015341 C310.136201,81.4630538 319.965133,69.7292616 329.216,66.3195986 L329.216,66.3195986 Z"></path>
    </defs>
	<g>
		<path d="M10.5813333,44.1567885 C17.6337204,36.1281147 26.609319,32.1146953 37.5062939,32.1146953 C47.8288746,32.1146953 56.2300789,36.1868387 62.7099068,44.3292903 L62.7099068,1.83512545 L89.7211183,1.83512545 L89.7211183,119.340043 L62.7099068,119.340043 L62.7099068,109.446882 C55.7712975,117.418667 47.3700932,121.432086 37.5062939,121.488975 C26.609319,121.488975 17.6355556,117.517763 10.5813333,109.575341 C3.52711111,101.634753 0,90.6662079 0,76.6733763 C0,63.0255484 3.52711111,52.1872975 10.5813333,44.1567885 L10.5813333,44.1567885 Z M443.727828,32.4303369 L463.169147,86.366509 L482.351713,32.4303369 L511.082437,32.4303369 L472.631054,129.635097 C469.476473,137.95005 464.960229,143.699498 459.082323,146.881606 C453.204416,150.063713 445.735455,151.77038 436.673606,151.999771 C431.972014,151.999771 428.0999,151.540989 425.060932,150.623427 L428.931211,126.451154 C430.823226,127.482495 433.060244,128.027527 435.64043,128.086251 C442.00648,128.086251 445.87676,126.509878 447.253104,123.355297 L449.231369,118.710595 L440.272287,95.9605448 C440.375054,95.0338065 440.428272,94.0997276 440.428272,93.1583082 C440.428272,85.5241864 437.049806,78.6094337 431.68757,74.1629247 L415.252186,32.4303369 L443.727828,32.4303369 L443.727828,32.4303369 Z M124.443527,65.3763441 L159.45405,65.3763441 C158.995269,61.878595 157.360172,58.7955842 154.550595,56.129147 C151.741018,53.4627097 147.496373,52.1285735 141.818495,52.1285735 C136.426896,52.1285735 132.327226,53.4333477 129.517649,56.0428961 C126.709907,58.6524444 125.017921,61.7629821 124.443527,65.3763441 L124.443527,65.3763441 Z M287.828416,0 L314.925878,0 L314.925878,73.230681 C310.018753,78.8571756 306.46595,86.366509 306.46595,94.1309247 C306.46595,101.88433 309.396645,108.925706 314.924043,113.704373 L314.924043,117.506753 L287.826581,117.506753 L287.826581,0 L287.828416,0 Z M27.6993835,74.8822939 C27.6993835,81.1052043 29.4629391,86.1224373 32.9900502,89.935828 C36.5171613,93.7492186 40.9765161,95.655914 46.3662796,95.655914 C49.2914695,95.655914 52.3157563,94.9255341 55.4409749,93.4629391 C58.5661935,92.0003441 60.9885591,90.1505376 62.7099068,87.9153548 L62.7099068,61.849233 C60.9316703,59.6122151 58.4946237,57.7917706 55.398767,56.3860645 C52.3010753,54.9803584 49.2914695,54.2793405 46.3662796,54.2793405 C40.8609032,54.2793405 36.3740215,56.1566738 32.9037993,59.9131756 C29.4335771,63.6696774 27.6993835,68.6593835 27.6993835,74.8822939 L27.6993835,74.8822939 Z M218.523068,87.9135197 C220.185692,90.1505376 222.565849,92.0003441 225.663541,93.4611039 C228.761233,94.9236989 231.770839,95.6540789 234.696029,95.6540789 C240.087627,95.6540789 244.559828,93.7767455 248.114466,90.0202437 C251.670939,86.2637419 253.447341,81.2024659 253.447341,74.8382509 C253.447341,68.5878136 251.683785,63.5981075 248.156674,59.8709677 C244.629563,56.143828 240.142681,54.2793405 234.694194,54.2793405 C231.769004,54.2793405 228.759398,55.0097204 225.661706,56.4723154 C222.564014,57.9349104 220.185692,59.7847168 218.521233,62.0198996 L218.521233,87.9135197 L218.523068,87.9135197 Z M96.7459785,74.8382509 C96.7459785,62.2786523 100.975943,51.712 109.434036,43.140129 C117.892129,34.5664229 128.688172,30.2795699 141.82033,30.2795699 C154.609319,30.2795699 165.060358,34.5957849 173.175283,43.2263799 C181.290208,51.8569749 185.34767,63.34119 185.34767,77.67719 L185.34767,83.8707384 L124.78853,83.8707384 C125.819871,87.9997706 128.157821,91.3543799 131.79871,93.9345663 C135.439599,96.5147527 140.214595,97.8048459 146.121864,97.8048459 C149.390222,97.8048459 153.075154,97.1313548 157.174824,95.7825376 C161.274495,94.4355556 164.500645,92.6995269 166.851441,90.5781219 L178.722867,108.384344 C174.593835,111.997706 169.33253,114.777921 162.937118,116.728659 C156.541706,118.679398 149.933419,119.653849 143.108588,119.653849 C129.747039,119.653849 118.679398,115.567025 109.903828,107.395211 C101.131928,99.225233 96.7459785,88.3723011 96.7459785,74.8382509 L96.7459785,74.8382509 Z M191.425606,149.935254 L191.425606,32.4303369 L218.523068,32.4303369 L218.523068,42.3234982 C225.118509,34.3517133 233.519713,30.3382939 243.726681,30.281405 C254.794323,30.281405 263.784602,34.2232545 270.693849,42.1087885 C277.604932,49.9943226 281.058638,60.9041434 281.058638,74.840086 C281.058638,88.9485305 277.588416,99.9446022 270.649806,107.830136 C263.711197,115.71567 254.735599,119.65752 243.724846,119.65752 C233.745434,119.65752 225.344229,115.585376 218.521233,107.442925 L218.521233,149.93709 L191.425606,149.93709 L191.425606,149.935254 Z" fill="#030000"></path>
		<mask id="mask-2" fill="white">
			<use xlink:href="#path-1"></use>
		</mask>
		<use fill="#9BC75D" xlink:href="#path-1"></use>
	</g>
</svg>
